src/assets/img/icons/duotone-icons/General/Trash.svg

<?xml version="1.0" encoding="UTF-8"?>
<svg width="24px" height="24px" viewBox="0 0 24 24" version="1.1" xmlns="http://www.w3.org/2000/svg" xmlns:xlink="http://www.w3.org/1999/xlink">
    <!-- Generator: Sketch 52.2 (67145) - http://www.bohemiancoding.com/sketch -->
    <title>Stockholm-icons / General / Trash</title>
    <desc>Created with Sketch.</desc>
    <g id="Stockholm-icons-/-General-/-Trash" stroke="none" stroke-width="1" fill="none" fill-rule="evenodd">
        <rect id="bound" x="0" y="0" width="24" height="24"></rect>
        <path d="M6,8 L6,20.5 C6,21.3284271 6.67157288,22 7.5,22 L16.5,22 C17.3284271,22 18,21.3284271 18,20.5 L18,8 L6,8 Z" id="round" fill="#335EEA"></path>
        <path d="M14,4.5 L14,4 C14,3.44771525 13.5522847,3 13,3 L11,3 C10.4477153,3 10,3.44771525 10,4 L10,4.5 L5.5,4.5 C5.22385763,4.5 5,4.72385763 5,5 L5,5.5 C5,5.77614237 5.22385763,6 5.5,6 L18.5,6 C18.7761424,6 19,5.77614237 19,5.5 L19,5 C19,4.72385763 18.7761424,4.5 18.5,4.5 L14,4.5 Z" id="Shape" fill="#335EEA" opacity="0.3"></path>
    </g>
</svg>

<svg width="24" height="24" viewBox="0 0 24 24" xmlns="http://www.w3.org/2000/svg"><g fill="none" fill-rule="evenodd"><path d="M0 0h24v24H0z"/><path d="M6 8v12.5A1.5 1.5 0 007.5 22h9a1.5 1.5 0 001.5-1.5V8H6z" fill="#335EEA"/><path d="M14 4.5V4a1 1 0 00-1-1h-2a1 1 0 00-1 1v.5H5.5A.5.5 0 005 5v.5a.5.5 0 00.5.5h13a.5.5 0 00.5-.5V5a.5.5 0 00-.5-.5H14z" fill="#335EEA" opacity=".3"/></g></svg>
